/* XPM */
static char * character_xpm[] = {
"64 64 11 1",
" 	c #C8D45D",
".	c #14182E",
"+	c #404973",
"@	c #686F99",
"#	c #FFC2A1",
"$	c #2B2B45",
"%	c #BD6A62",
"&	c #52333F",
"*	c #DFE0E8",
"=	c #8F4D57",
"-	c #4FA4B8",
"                    ........................                    ",
"                    ........................                    ",
"                    ........................                    ",
"                    ........................                    ",
"                ....++++++++++++++++++++++++....                ",
"                ....++++++++++++++++++++++++....                ",
"                ....++++++++++++++++++++++++....                ",
"                ....++++++++++++++++++++++++....                ",
"            ....++++@@@@@@@@++++++++++++++++++++....            ",
"            ....++++@@@@@@@@++++++++++++++++++++....            ",
"            ....++++@@@@@@@@++++++++++++++++++++....            ",
"            ....++++@@@@@@@@++++++++++++++++++++....            ",
"            ....++++++++++++@@@@@@@@++++++++++++....            ",
"            ....++++++++++++@@@@@@@@++++++++++++....            ",
"            ....++++++++++++@@@@@@@@++++++++++++....            ",
"            ....++++++++++++@@@@@@@@++++++++++++....            ",
"            ....++++++++++++++++++++@@@@++++++++....            ",
"            ....++++++++++++++++++++@@@@++++++++....            ",
"            ....++++++++++++++++++++@@@@++++++++....            ",
"            ....++++++++++++++++++++@@@@++++++++....            ",
"            ....++++++++++++++++++++++++########....            ",
"            ....++++++++++++++++++++++++########....            ",
"            ....++++++++++++++++++++++++########....            ",
"            ....++++++++++++++++++++++++########....            ",
"            ....++++++++++++++++++++$$$$$$$$####....            ",
"            ....++++++++++++++++++++$$$$$$$$####....            ",
"            ....++++++++++++++++++++$$$$$$$$####....            ",
"            ....++++++++++++++++++++$$$$$$$$####....            ",
"            ....++++++++########$$$$####....####....            ",
"            ....++++++++########$$$$####....####....            ",
"            ....++++++++########$$$$####....####....            ",
"            ....++++++++########$$$$####....####....            ",
"            ....++++++++####%%%%++++####....%%%%....            ",
"            ....++++++++####%%%%++++####....%%%%....            ",
"            ....++++++++####%%%%++++####....%%%%....            ",
"            ....++++++++####%%%%++++####....%%%%....            ",
"            ....++++++++++++####++++########....                ",
"            ....++++++++++++####++++########....                ",
"            ....++++++++++++####++++########....                ",
"            ....++++++++++++####++++########....                ",
"            ....++++++++....&&&&%%%%........                    ",
"            ....++++++++....&&&&%%%%........                    ",
"            ....++++++++....&&&&%%%%........                    ",
"            ....++++++++....&&&&%%%%........                    ",
"            ....++++....****....&&&&====****....                ",
"            ....++++....****....&&&&====****....                ",
"            ....++++....****....&&&&====****....                ",
"            ....++++....****....&&&&====****....                ",
"                ........####%%%%....====****....                ",
"                ........####%%%%....====****....                ",
"                ........####%%%%....====****....                ",
"                ........####%%%%....====****....                ",
"                    ....########....--------....                ",
"                    ....########....--------....                ",
"                    ....########....--------....                ",
"                    ....########....--------....                ",
"                        ........%%%%%%%%....                    ",
"                        ........%%%%%%%%....                    ",
"                        ........%%%%%%%%....                    ",
"                        ........%%%%%%%%....                    ",
"                                ........                        ",
"                                ........                        ",
"                                ........                        ",
"                                ........                        "};
