/* XPM */
static char * chest_xpm[] = {
"64 64 6 1",
" 	c None",
".	c #14182E",
"+	c #FFEE83",
"@	c #F5FFE8",
"#	c #F0B541",
"$	c #AD2F45",
"                                                                ",
"                                                                ",
"                                                                ",
"                                                                ",
"        ........                                ........        ",
"        ........                                ........        ",
"        ........                                ........        ",
"        ........                                ........        ",
"    ....++++........................................++++....    ",
"    ....++++........................................++++....    ",
"    ....++++........................................++++....    ",
"    ....++++........................................++++....    ",
"    ....++++............@@@@........@@@@............++++....    ",
"    ....++++............@@@@........@@@@............++++....    ",
"    ....++++............@@@@........@@@@............++++....    ",
"    ....++++............@@@@........@@@@............++++....    ",
"    ....++++++++++++####++++........++++####++++++++++++....    ",
"    ....++++++++++++####++++........++++####++++++++++++....    ",
"    ....++++++++++++####++++........++++####++++++++++++....    ",
"    ....++++++++++++####++++........++++####++++++++++++....    ",
"    ........................++++++++........................    ",
"    ........................++++++++........................    ",
"    ........................++++++++........................    ",
"    ........................++++++++........................    ",
"    ........................................................    ",
"    ........................................................    ",
"    ........................................................    ",
"    ........................................................    ",
"    ....####........................................####....    ",
"    ....####........................................####....    ",
"    ....####........................................####....    ",
"    ....####........................................####....    ",
"    ....####........................................####....    ",
"    ....####........................................####....    ",
"    ....####........................................####....    ",
"    ....####........................................####....    ",
"    ....####........................................####....    ",
"    ....####........................................####....    ",
"    ....####........................................####....    ",
"    ....####........................................####....    ",
"    ....####........................................####....    ",
"    ....####........................................####....    ",
"    ....####........................................####....    ",
"    ....####........................................####....    ",
"    ....++++....$$$$$$$$$$$$$$$$$$$$$$$$$$$$$$$$....++++....    ",
"    ....++++....$$$$$$$$$$$$$$$$$$$$$$$$$$$$$$$$....++++....    ",
"    ....++++....$$$$$$$$$$$$$$$$$$$$$$$$$$$$$$$$....++++....    ",
"    ....++++....$$$$$$$$$$$$$$$$$$$$$$$$$$$$$$$$....++++....    ",
"    ....++++....$$$$$$$$$$$$$$$$$$$$$$$$$$$$$$$$....++++....    ",
"    ....++++....$$$$$$$$$$$$$$$$$$$$$$$$$$$$$$$$....++++....    ",
"    ....++++....$$$$$$$$$$$$$$$$$$$$$$$$$$$$$$$$....++++....    ",
"    ....++++....$$$$$$$$$$$$$$$$$$$$$$$$$$$$$$$$....++++....    ",
"    ....++++........................................++++....    ",
"    ....++++........................................++++....    ",
"    ....++++........................................++++....    ",
"    ....++++........................................++++....    ",
"    ....++++++++++++++++++++++++++++++++++++++++++++++++....    ",
"    ....++++++++++++++++++++++++++++++++++++++++++++++++....    ",
"    ....++++++++++++++++++++++++++++++++++++++++++++++++....    ",
"    ....++++++++++++++++++++++++++++++++++++++++++++++++....    ",
"    ....####........................................####....    ",
"    ....####........................................####....    ",
"    ....####........................................####....    ",
"    ....####........................................####....    "};
