/* XPM */
static char * coin_xpm[] = {
"64 64 4 1",
" 	c None",
".	c #14182E",
"+	c #FFEE83",
"@	c #FF8933",
"             ......................................             ",
"             ......................................             ",
"             ......................................             ",
"             ......................................             ",
"             ......................................             ",
"             ......................................             ",
"             ......................................             ",
"             ......................................             ",
"             ......................................             ",
"             ......................................             ",
"             ......................................             ",
"             ......................................             ",
"             ......................................             ",
".............++++++++++++++++++++++++++++++++++++++.............",
".............++++++++++++++++++++++++++++++++++++++.............",
".............++++++++++++++++++++++++++++++++++++++.............",
".............++++++++++++++++++++++++++++++++++++++.............",
".............++++++++++++++++++++++++++++++++++++++.............",
".............++++++++++++++++++++++++++++++++++++++.............",
".............++++++++++++++++++++++++++++++++++++++.............",
".............++++++++++++++++++++++++++++++++++++++.............",
".............++++++++++++++++++++++++++++++++++++++.............",
".............++++++++++++++++++++++++++++++++++++++.............",
".............++++++++++++++++++++++++++++++++++++++.............",
".............++++++++++++++++++++++++++++++++++++++.............",
".............++++++++++++++++++++++++++++++++++++++.............",
".............++++++++++++++++++++++++++++++++++++++.............",
".............++++++++++++++++++++++++++++++++++++++.............",
".............++++++++++++++++++++++++++++++++++++++.............",
".............++++++++++++++++++++++++++++++++++++++.............",
".............++++++++++++++++++++++++++++++++++++++.............",
".............++++++++++++++++++++++++++++++++++++++.............",
".............++++++++++++++++++++++++++++++++++++++.............",
".............++++++++++++++++++++++++++++++++++++++.............",
".............++++++++++++++++++++++++++++++++++++++.............",
".............++++++++++++++++++++++++++++++++++++++.............",
".............++++++++++++++++++++++++++++++++++++++.............",
".............++++++++++++++++++++++++++++++++++++++.............",
".............@@@@@@@@@@@@@@@@@@@@@@@@@@@@@@@@@@@@@@.............",
".............@@@@@@@@@@@@@@@@@@@@@@@@@@@@@@@@@@@@@@.............",
".............@@@@@@@@@@@@@@@@@@@@@@@@@@@@@@@@@@@@@@.............",
".............@@@@@@@@@@@@@@@@@@@@@@@@@@@@@@@@@@@@@@.............",
".............@@@@@@@@@@@@@@@@@@@@@@@@@@@@@@@@@@@@@@.............",
".............@@@@@@@@@@@@@@@@@@@@@@@@@@@@@@@@@@@@@@.............",
".............@@@@@@@@@@@@@@@@@@@@@@@@@@@@@@@@@@@@@@.............",
".............@@@@@@@@@@@@@@@@@@@@@@@@@@@@@@@@@@@@@@.............",
".............@@@@@@@@@@@@@@@@@@@@@@@@@@@@@@@@@@@@@@.............",
".............@@@@@@@@@@@@@@@@@@@@@@@@@@@@@@@@@@@@@@.............",
".............@@@@@@@@@@@@@@@@@@@@@@@@@@@@@@@@@@@@@@.............",
".............@@@@@@@@@@@@@@@@@@@@@@@@@@@@@@@@@@@@@@.............",
".............@@@@@@@@@@@@@@@@@@@@@@@@@@@@@@@@@@@@@@.............",
"             ......................................             ",
"             ......................................             ",
"             ......................................             ",
"             ......................................             ",
"             ......................................             ",
"             ......................................             ",
"             ......................................             ",
"             ......................................             ",
"             ......................................             ",
"             ......................................             ",
"             ......................................             ",
"             ......................................             ",
"             ......................................             "};
